X: 51
T: YORKSHIRE LAD
B: "Old English Country Dances", Frank Kidson ed., William Reeves pub., London 1890
N: Bar 3 had an extra bar line in the middle.
Z: 2010-9-26 John Chambers <jc:trillian.mit.edu>
M: C
L: 1/8
K: A
|: c2 Ac d2 Bd | c/d/e/c/ Ac BG E2 | c2 Ac d2 B/c/d/B/ | c/d/e Aa g2 e2 :|
|: a2 c/d/e/c/ df b2 | d/e/f Bd ce ae | f2 dB e2 cA | G/A/B EG A2 A,2 :|


%%sep 1 1 500

%%sep 1 1 500

